SVG_Azure_Grouped/Application/Event Grid Partner Topic.svg

<?xml version="1.0" encoding="UTF-8" standalone="no"?>
<!-- Generated by Microsoft Visio, SVG Export Event Grid Partner Topic.svg Page-1 -->

<svg
   xmlns:dc="http://purl.org/dc/elements/1.1/"
   xmlns:cc="http://creativecommons.org/ns#"
   xmlns:rdf="http://www.w3.org/1999/02/22-rdf-syntax-ns#"
   xmlns:svg="http://www.w3.org/2000/svg"
   xmlns="http://www.w3.org/2000/svg"
   xmlns:sodipodi="http://sodipodi.sourceforge.net/DTD/sodipodi-0.dtd"
   xmlns:inkscape="http://www.inkscape.org/namespaces/inkscape"
   width="0.78747183in"
   height="0.63004947in"
   viewBox="0 0 56.69797 45.363725"
   xml:space="preserve"
   class="st6"
   version="1.1"
   id="svg77"
   sodipodi:docname="Event Grid Partner Topic.svg"
   style="font-size:12px;overflow:visible;color-interpolation-filters:sRGB;fill:none;fill-rule:evenodd;stroke-linecap:square;stroke-miterlimit:3"
   inkscape:version="0.92.5 (2060ec1f9f, 2020-04-08)"><metadata
   id="metadata81"><rdf:RDF><cc:Work
       rdf:about=""><dc:format>image/svg+xml</dc:format><dc:type
         rdf:resource="http://purl.org/dc/dcmitype/StillImage" /></cc:Work></rdf:RDF></metadata><sodipodi:namedview
   pagecolor="#ffffff"
   bordercolor="#666666"
   borderopacity="1"
   objecttolerance="10"
   gridtolerance="10"
   guidetolerance="10"
   inkscape:pageopacity="0"
   inkscape:pageshadow="2"
   inkscape:window-width="640"
   inkscape:window-height="480"
   id="namedview79"
   showgrid="false"
   inkscape:zoom="2.1095237"
   inkscape:cx="37.797803"
   inkscape:cy="10.588695"
   inkscape:window-x="0"
   inkscape:window-y="0"
   inkscape:window-maximized="0"
   inkscape:current-layer="svg77" />
	<style
   type="text/css"
   id="style2">
	<![CDATA[
		.st1 {fill:#a3a3a3;stroke:none;stroke-linecap:butt;stroke-width:0.75}
		.st2 {fill:#a3a3a3;fill-opacity:0.5;stroke:none;stroke-linecap:butt;stroke-width:0.75}
		.st3 {fill:#949494;stroke:none;stroke-linecap:butt;stroke-width:0.75}
		.st4 {fill:url(#grad0-25);stroke:none;stroke-linecap:butt;stroke-width:0.75}
		.st5 {fill:#773adc;stroke:none;stroke-linecap:butt;stroke-width:0.75}
		.st6 {fill:none;fill-rule:evenodd;font-size:12px;overflow:visible;stroke-linecap:square;stroke-miterlimit:3}
	]]>
	</style>

	<defs
   id="Patterns_And_Gradients">
		<linearGradient
   id="grad0-25"
   x1="0.018499874"
   y1="107.97331"
   x2="20.310234"
   y2="107.97331"
   gradientTransform="scale(1.5286025,0.65419229)"
   gradientUnits="userSpaceOnUse">
			<stop
   offset="0"
   stop-color="#0078d4"
   stop-opacity="1"
   id="stop4" />
			<stop
   offset="1"
   stop-color="#5ea0ef"
   stop-opacity="1"
   id="stop6" />
		</linearGradient>
	</defs>
	<g
   id="g75"
   transform="translate(-5.6674196,-4.5305751)">
		<title
   id="title10">Page-1</title>
		<g
   id="group14141-1"
   transform="translate(5.66929,-34.0157)">
			<title
   id="title12">Event Grid Partner Topic.14141</title>
			<g
   id="shape14142-2"
   transform="translate(0,-33.769)">
				<title
   id="title14">Sheet.14142</title>
				<path
   d="m 1.93,72.34 h 4.29 v 10.7 A 0.96378,0.865508 0 0 1 5.25622,83.905508 L 0.97,83.91 A 0.96378,0.865508 0 0 1 0.003071,83.044492 L 0,74.08 a 1.88976,1.69708 0 0 1 1.86,-1.74 z"
   class="st1"
   id="path16"
   inkscape:connector-curvature="0"
   style="fill:#a3a3a3;stroke:none;stroke-width:0.75;stroke-linecap:butt" />
			</g>
			<g
   id="shape14143-4"
   transform="translate(0,-33.769)">
				<title
   id="title19">Sheet.14143</title>
				<path
   d="m 1.93,72.34 h 4.29 v 10.7 A 0.96378,0.865508 0 0 1 5.25622,83.905508 L 0.97,83.91 A 0.96378,0.865508 0 0 1 0.003071,83.044492 L 0,74.08 a 1.88976,1.69708 0 0 1 1.86,-1.74 z"
   class="st2"
   id="path21"
   inkscape:connector-curvature="0"
   style="fill:#a3a3a3;fill-opacity:0.5;stroke:none;stroke-width:0.75;stroke-linecap:butt" />
			</g>
			<g
   id="shape14144-6"
   transform="translate(50.4724,-33.7746)">
				<title
   id="title24">Sheet.14144</title>
				<path
   d="m 0,72.35 h 4.29 a 1.88976,1.69708 0 0 1 1.89,1.7 v 8.99 A 0.96378,0.865508 0 0 1 5.21622,83.905508 L 0.96,83.91 a 0.96378,0.865508 0 0 1 -0.96378,-0.865508 z"
   class="st1"
   id="path26"
   inkscape:connector-curvature="0"
   style="fill:#a3a3a3;stroke:none;stroke-width:0.75;stroke-linecap:butt" />
			</g>
			<g
   id="shape14145-8"
   transform="translate(50.4724,-33.7746)">
				<title
   id="title29">Sheet.14145</title>
				<path
   d="m 0,72.35 h 4.29 a 1.88976,1.69708 0 0 1 1.89,1.7 v 8.99 A 0.96378,0.865508 0 0 1 5.21622,83.905508 L 0.96,83.91 a 0.96378,0.865508 0 0 1 -0.96378,-0.865508 z"
   class="st2"
   id="path31"
   inkscape:connector-curvature="0"
   style="fill:#a3a3a3;fill-opacity:0.5;stroke:none;stroke-width:0.75;stroke-linecap:butt" />
			</g>
			<g
   id="shape14146-10"
   transform="translate(0.100787,-39.9237)">
				<title
   id="title34">Sheet.14146</title>
				<path
   d="m 56.56,80.17 v 3.74 H 0 v -3.74 a 1.88976,1.69708 0 0 1 1.89,-1.7 h 52.77 a 1.88976,1.69708 0 0 1 1.9,1.7 z"
   class="st3"
   id="path36"
   inkscape:connector-curvature="0"
   style="fill:#949494;stroke:none;stroke-width:0.75;stroke-linecap:butt" />
			</g>
			<g
   id="shape14147-12"
   transform="translate(0,-0.00282846)">
				<title
   id="title39">Sheet.14147</title>
				<path
   d="m 0.97,72.26 h 4.29 a 0.96378,0.865508 0 0 1 0.96378,0.865508 L 6.22,83.91 H 1.93 A 1.88976,1.69708 0 0 1 0,82.23 C 0,82.2 0,82.17 0,82.14 v -8.97 a 0.96378,0.865508 0 0 1 0.897638,-0.919249 z"
   class="st1"
   id="path41"
   inkscape:connector-curvature="0"
   style="fill:#a3a3a3;stroke:none;stroke-width:0.75;stroke-linecap:butt" />
			</g>
			<g
   id="shape14148-14"
   transform="translate(0,-0.00282846)">
				<title
   id="title44">Sheet.14148</title>
				<path
   d="m 0.97,72.26 h 4.29 a 0.96378,0.865508 0 0 1 0.96378,0.865508 L 6.22,83.91 H 1.93 A 1.88976,1.69708 0 0 1 0,82.23 C 0,82.2 0,82.17 0,82.14 v -8.97 a 0.96378,0.865508 0 0 1 0.897638,-0.919249 z"
   class="st2"
   id="path46"
   inkscape:connector-curvature="0"
   style="fill:#a3a3a3;fill-opacity:0.5;stroke:none;stroke-width:0.75;stroke-linecap:butt" />
			</g>
			<g
   id="shape14149-16"
   transform="translate(50.4724,-0.144251)">
				<title
   id="title49">Sheet.14149</title>
				<path
   d="m 0.96,72.4 h 4.3 a 0.96378,0.865508 0 0 1 0.96378,0.848538 L 6.22,82.21 a 1.88976,1.69708 0 0 1 -1.89,1.7 H 0 V 73.3 a 0.96378,0.865508 0 0 1 0.894488,-0.924906 z"
   class="st1"
   id="path51"
   inkscape:connector-curvature="0"
   style="fill:#a3a3a3;stroke:none;stroke-width:0.75;stroke-linecap:butt" />
			</g>
			<g
   id="shape14150-18"
   transform="translate(50.4724,-0.144251)">
				<title
   id="title54">Sheet.14150</title>
				<path
   d="m 0.96,72.4 h 4.3 a 0.96378,0.865508 0 0 1 0.96378,0.848538 L 6.22,82.21 a 1.88976,1.69708 0 0 1 -1.89,1.7 H 0 V 73.3 a 0.96378,0.865508 0 0 1 0.894488,-0.924906 z"
   class="st2"
   id="path56"
   inkscape:connector-curvature="0"
   style="fill:#a3a3a3;fill-opacity:0.5;stroke:none;stroke-width:0.75;stroke-linecap:butt" />
			</g>
			<g
   id="shape14151-20">
				<title
   id="title59">Sheet.14151</title>
				<path
   d="m 0,82.19 v -3.72 h 56.56 v 3.74 a 1.88976,1.69708 0 0 1 -1.89,1.7 H 1.89 A 1.88976,1.69708 0 0 1 0,82.19 Z"
   class="st3"
   id="path61"
   inkscape:connector-curvature="0"
   style="fill:#949494;stroke:none;stroke-width:0.75;stroke-linecap:butt" />
			</g>
			<g
   id="shape14152-22"
   transform="translate(16.8374,-16.2014)">
				<title
   id="title64">Sheet.14152</title>
				<path
   d="m 23.85,83.91 a 0.330709,0.296988 -180 0 0 0.258268,-0.113138 L 30.85,77.77 a 0.737008,0.661859 -180 0 0 0,-0.89945 L 24.11,70.76 a 0.314961,0.282846 -180 0 0 -0.466142,-0.05657 0.333858,0.299817 -180 0 0 -0.125984,0.282846 L 23.52,74.75 a 0.333858,0.299817 0 0 1 -0.292913,0.33093 L 7.53,75.08 A 3.88976,3.49315 -180 0 0 4.45,73.71 C 4.32,73.71 4.19,73.7 4.06,73.7 A 4.07559,3.66003 -180 0 0 3.68,81 c 0.13,0 0.26,0 0.39,0 0.13,0 0.25,0 0.38,0 A 4.0126,3.60346 -180 0 0 7.57,79.6 H 23.2 a 0.333858,0.299817 0 0 1 0.330709,0.265875 L 23.53,83.6 a 0.337008,0.302645 -180 0 0 0.324409,0.308302 z"
   class="st4"
   id="path66"
   inkscape:connector-curvature="0"
   style="fill:url(#grad0-25);stroke:none;stroke-width:0.75;stroke-linecap:butt" />
			</g>
			<g
   id="shape14153-26"
   transform="translate(8.24993,-18.2436)">
				<title
   id="title69">Sheet.14153</title>
				<path
   d="m 19.74,83.91 a 8.65197,7.76978 0 1 1 -0.03,-9.06 h 4.69 a 12.7244,11.427 -180 1 0 0.02,9.06 z"
   class="st5"
   id="path71"
   inkscape:connector-curvature="0"
   style="fill:#773adc;stroke:none;stroke-width:0.75;stroke-linecap:butt" />
			</g>
		</g>
	</g>
</svg>

<?xml version="1.0" encoding="UTF-8" standalone="no"?>
<!DOCTYPE svg PUBLIC "-//W3C//DTD SVG 1.1//EN" "http://www.w3.org/Graphics/SVG/1.1/DTD/svg11.dtd">
<!-- Generated by Microsoft Visio, SVG Export Event Grid Partner Topic.svg Page-1 -->
<svg xmlns="http://www.w3.org/2000/svg" xmlns:xlink="http://www.w3.org/1999/xlink" xmlns:ev="http://www.w3.org/2001/xml-events"
		width="0.944882in" height="1.16535in" viewBox="0 0 68.0315 83.9055" xml:space="preserve" color-interpolation-filters="sRGB"
		class="st6">
	<style type="text/css">
	<![CDATA[
		.st1 {fill:#a3a3a3;stroke:none;stroke-linecap:butt;stroke-width:0.75}
		.st2 {fill:#a3a3a3;fill-opacity:0.5;stroke:none;stroke-linecap:butt;stroke-width:0.75}
		.st3 {fill:#949494;stroke:none;stroke-linecap:butt;stroke-width:0.75}
		.st4 {fill:url(#grad0-25);stroke:none;stroke-linecap:butt;stroke-width:0.75}
		.st5 {fill:#773adc;stroke:none;stroke-linecap:butt;stroke-width:0.75}
		.st6 {fill:none;fill-rule:evenodd;font-size:12px;overflow:visible;stroke-linecap:square;stroke-miterlimit:3}
	]]>
	</style>

	<defs id="Patterns_And_Gradients">
		<linearGradient id="grad0-25" x1="0" y1="0" x2="1" y2="0" gradientTransform="rotate(-90 0.5 0.5)">
			<stop offset="0" stop-color="#0078d4" stop-opacity="1"/>
			<stop offset="1" stop-color="#5ea0ef" stop-opacity="1"/>
		</linearGradient>
	</defs>
	<g>
		<title>Page-1</title>
		<g id="group13794-1" transform="translate(5.66929,-34.0157)">
			<title>Event Grid Partner Topic.13794</title>
			<g id="shape13795-2" transform="translate(-5.64548E-14,-33.769)">
				<title>Sheet.13795</title>
				<path d="M1.93 72.34 L6.22 72.34 L6.22 83.04 a0.96378 0.865508 0 0 1 -0.96378 0.865508 L0.97 83.91 a0.96378 0.865508
							 0 0 1 -0.966929 -0.865508 L0 74.08 A1.88976 1.69708 0 0 1 1.86 72.34 L1.93 72.34 Z" class="st1"/>
			</g>
			<g id="shape13796-4" transform="translate(-5.64548E-14,-33.769)">
				<title>Sheet.13796</title>
				<path d="M1.93 72.34 L6.22 72.34 L6.22 83.04 a0.96378 0.865508 0 0 1 -0.96378 0.865508 L0.97 83.91 a0.96378 0.865508
							 0 0 1 -0.966929 -0.865508 L0 74.08 A1.88976 1.69708 0 0 1 1.86 72.34 L1.93 72.34 Z" class="st2"/>
			</g>
			<g id="shape13797-6" transform="translate(50.4724,-33.7746)">
				<title>Sheet.13797</title>
				<path d="M0 72.35 L4.29 72.35 A1.88976 1.69708 0 0 1 6.18 74.05 L6.18 83.04 a0.96378 0.865508 0 0 1 -0.96378 0.865508
							 L0.96 83.91 a0.96378 0.865508 0 0 1 -0.96378 -0.865508 L0 72.35 Z" class="st1"/>
			</g>
			<g id="shape13798-8" transform="translate(50.4724,-33.7746)">
				<title>Sheet.13798</title>
				<path d="M0 72.35 L4.29 72.35 A1.88976 1.69708 0 0 1 6.18 74.05 L6.18 83.04 a0.96378 0.865508 0 0 1 -0.96378 0.865508
							 L0.96 83.91 a0.96378 0.865508 0 0 1 -0.96378 -0.865508 L0 72.35 Z" class="st2"/>
			</g>
			<g id="shape13799-10" transform="translate(0.100787,-39.9237)">
				<title>Sheet.13799</title>
				<path d="M56.56 80.17 L56.56 83.91 L0 83.91 L0 80.17 A1.88976 1.69708 0 0 1 1.89 78.47 L54.66 78.47 A1.88976 1.69708
							 0 0 1 56.56 80.17 Z" class="st3"/>
			</g>
			<g id="shape13800-12" transform="translate(-5.64548E-14,-0.00282846)">
				<title>Sheet.13800</title>
				<path d="M0.97 72.26 L5.26 72.26 a0.96378 0.865508 0 0 1 0.96378 0.865508 L6.22 83.91 L1.93 83.91 A1.88976 1.69708
							 0 0 1 0 82.23 C0 82.2 0 82.17 0 82.14 L0 73.17 a0.96378 0.865508 0 0 1 0.897638 -0.919249 L0.97 72.26
							 Z" class="st1"/>
			</g>
			<g id="shape13801-14" transform="translate(-5.64548E-14,-0.00282846)">
				<title>Sheet.13801</title>
				<path d="M0.97 72.26 L5.26 72.26 a0.96378 0.865508 0 0 1 0.96378 0.865508 L6.22 83.91 L1.93 83.91 A1.88976 1.69708
							 0 0 1 0 82.23 C0 82.2 0 82.17 0 82.14 L0 73.17 a0.96378 0.865508 0 0 1 0.897638 -0.919249 L0.97 72.26
							 Z" class="st2"/>
			</g>
			<g id="shape13802-16" transform="translate(50.4724,-0.144251)">
				<title>Sheet.13802</title>
				<path d="M0.96 72.4 L5.26 72.4 a0.96378 0.865508 0 0 1 0.96378 0.848538 L6.22 82.21 A1.88976 1.69708 0 0 1 4.33 83.91
							 L0 83.91 L0 73.3 a0.96378 0.865508 0 0 1 0.894488 -0.924906 L0.96 72.4 Z" class="st1"/>
			</g>
			<g id="shape13803-18" transform="translate(50.4724,-0.144251)">
				<title>Sheet.13803</title>
				<path d="M0.96 72.4 L5.26 72.4 a0.96378 0.865508 0 0 1 0.96378 0.848538 L6.22 82.21 A1.88976 1.69708 0 0 1 4.33 83.91
							 L0 83.91 L0 73.3 a0.96378 0.865508 0 0 1 0.894488 -0.924906 L0.96 72.4 Z" class="st2"/>
			</g>
			<g id="shape13804-20">
				<title>Sheet.13804</title>
				<path d="M0 82.19 L0 78.47 L56.56 78.47 L56.56 82.21 A1.88976 1.69708 0 0 1 54.67 83.91 L1.89 83.91 A1.88976 1.69708
							 0 0 1 -0 82.19 Z" class="st3"/>
			</g>
			<g id="shape13805-22" transform="translate(16.8374,-16.2014)">
				<title>Sheet.13805</title>
				<path d="M23.85 83.91 a0.330709 0.296988 -180 0 0 0.258268 -0.113138 L30.85 77.77 a0.737008 0.661859 -180 0 0 -5.68434E-14
							 -0.89945 L24.11 70.76 a0.314961 0.282846 -180 0 0 -0.466142 -0.0565692 a0.333858 0.299817 -180 0 0 -0.125984
							 0.282846 L23.52 74.75 a0.333858 0.299817 0 0 1 -0.292913 0.33093 L7.53 75.08 A3.88976 3.49315 -180 0
							 0 4.45 73.71 C4.32 73.71 4.19 73.7 4.06 73.7 A4.07559 3.66003 -180 0 0 3.68 81 C3.81 81 3.94 81 4.07
							 81 C4.2 81 4.32 81 4.45 81 A4.0126 3.60346 -180 0 0 7.57 79.6 L23.2 79.6 a0.333858 0.299817 0 0 1 0.330709
							 0.265875 L23.53 83.6 a0.337008 0.302645 -180 0 0 0.324409 0.308302 Z" class="st4"/>
			</g>
			<g id="shape13806-26" transform="translate(8.24993,-18.2436)">
				<title>Sheet.13806</title>
				<path d="M19.74 83.91 A8.65197 7.76978 0 1 1 19.71 74.85 L24.4 74.85 A12.7244 11.427 -180 1 0 24.42 83.91 L19.74
							 83.91 Z" class="st5"/>
			</g>
		</g>
	</g>
</svg>
